X: 11
T: My Love Is In America
Z: leprecawn
S: https://thesession.org/tunes/77#setting52535
R: reel
M: 4/4
L: 1/8
K: Gmaj
||:E|FEFG ABcB|Ad~d2 Ad d2|FEFG ABcA|GBAG FDD2|
FEFG ABcB|Add^c defg|afge fdAF|GBAG FD D:|
|:g|fdeg fde^c|Ad d2 Adde|fdeg fdAF|GBAG FDDe|
fdeg fde^c|Add^c defg|afge fdAF|GBAG FD D:|

